assets/icons/uEB02-two-ways.svg

<svg xmlns="http://www.w3.org/2000/svg" width="896" height="1232" viewBox="0 0 896 1232"><path d="M873 669q23 16 23 45 0 28-23 46L621 942q-17 10-33 10-14 0-26-6-30-17-30-50v-56H112q-23 0-39.5-16.5T56 784V644q0-23 16.5-39.5T112 588h420v-56q0-33 30-50 12-6 26-6 17 0 33 11zM588 896l252-182-252-182v112H112v140h476v112zM308 532q-16 0-33-10L23 339Q0 323 0 294q0-28 23-46L275 67q16-11 33-11 13 0 25 6 31 16 31 50v56h420q23 0 39.5 16.5T840 224v140q0 23-16.5 39.5T784 420H364v56q0 34-31 50-12 6-25 6zm0-420L56 294l252 182V364h476V224H308V112z"/></svg>

<?xml version="1.0" encoding="UTF-8" standalone="no"?><svg   xmlns:svg="http://www.w3.org/2000/svg"   xmlns="http://www.w3.org/2000/svg"   version="1.1"   width="896"   height="1232"   viewBox="0 0 896 1232">  <path     d="M873 669Q896 685 896 714Q896 742 873 760L621 942Q604 952 588 952Q574 952 562 946Q532 929 532 896V840H112Q89 840 72.5 823.5T56 784V644Q56 621 72.5 604.5T112 588H532V532Q532 499 562 482Q574 476 588 476Q605 476 621 487zM588 896L840 714L588 532V644H112V784H588V896zM308 532Q292 532 275 522L23 339Q0 323 0 294Q0 266 23 248L275 67Q291 56 308 56Q321 56 333 62Q364 78 364 112V168H784Q807 168 823.5 184.5T840 224V364Q840 387 823.5 403.5T784 420H364V476Q364 510 333 526Q321 532 308 532zM308 112L56 294L308 476V364H784V224H308V112z"     id="icon10" /></svg>
